images/svgs/illustration-icon.svg

<?xml version="1.0" encoding="utf-8"?>
<!-- Generator: Adobe Illustrator 16.0.0, SVG Export Plug-In . SVG Version: 6.00 Build 0)  -->
<!DOCTYPE svg PUBLIC "-//W3C//DTD SVG 1.1//EN" "http://www.w3.org/Graphics/SVG/1.1/DTD/svg11.dtd">
<svg version="1.1" id="Layer_1" xmlns="http://www.w3.org/2000/svg" xmlns:xlink="http://www.w3.org/1999/xlink" x="0px" y="0px"
	 width="50px" height="50px" viewBox="0 0 50 50" style="enable-background:new 0 0 50 50;" xml:space="preserve">
<style type="text/css">
<![CDATA[
	.st0{fill:#E05D6E;}
	.st1{fill:#CCCCCC;}
	.st2{fill:none;stroke:#DFDFDF;stroke-width:3;stroke-miterlimit:10;}
]]>
</style>
<g>
	<path class="st0" d="M42.4,35.7c1.7,1.8,1.9,4.4,0.1,6.1L40,44.1c-1.8,1.7-4.1,0.9-5.7-1l-22.7-25c-1.6-1.8,1-1.8,2.8-3.4l1.4-1.2
		c1.8-1.6,2.4-4.5,4-2.7L42.4,35.7z"/>
	<polygon class="st1" points="11,17.6 9.4,7.8 19,10.4 16.3,15.4 	"/>
	<path class="st1" d="M43.9,37.9c0.8,0.9,0.6,2.2-0.3,3l-4.7,4.2c-0.9,0.8-2.2,0.9-3,0l0,0c-0.8-0.9-1.7-1.2-0.8-2l6.9-6.2
		C42.9,36,43.1,36.9,43.9,37.9L43.9,37.9z"/>
	<polygon class="st0" points="10.3,12.4 9.5,7.7 14.1,8.9 12.8,11.3 	"/>
	<line class="st2" x1="13.7" y1="16.6" x2="36.5" y2="41.8"/>
	<line class="st2" x1="17.4" y1="13.3" x2="40.2" y2="38.5"/>
</g>
<g>
	<path class="st0" d="M40.2,44.1c0.2,2.5-1.3,4.6-3.8,4.8l-3.3,0.2c-2.5,0.2-3.7-1.9-3.9-4.3L27.1,11c-0.2-2.5,1.8-0.8,4.3-0.9
		l1.9-0.1c2.5-0.2,4.7-2.1,4.8,0.4L40.2,44.1z"/>
	<polygon class="st1" points="26.9,10.3 31.8,1.6 37.7,9.6 32.4,11.8 	"/>
	<path class="st1" d="M40,46.6c0.1,1.2-0.9,2.1-2.1,2.1l-6.3,0.4c-1.2,0.1-2.3-0.6-2.3-1.9l0,0c-0.1-1.2-0.6-2,0.6-2l9.3-0.6
		C40.4,44.6,39.9,45.4,40,46.6L40,46.6z"/>
	<polygon class="st0" points="29.6,5.8 32,1.6 34.8,5.4 32.3,6.5 	"/>
	<line class="st2" x1="29.6" y1="11.2" x2="31.7" y2="45.1"/>
	<line class="st2" x1="34.6" y1="10.9" x2="36.7" y2="44.8"/>
</g>
</svg>

<?xml version="1.0" encoding="utf-8"?>
<!-- Generator: Adobe Illustrator 16.0.0, SVG Export Plug-In . SVG Version: 6.00 Build 0)  -->
<!DOCTYPE svg PUBLIC "-//W3C//DTD SVG 1.1//EN" "http://www.w3.org/Graphics/SVG/1.1/DTD/svg11.dtd">
<svg version="1.1" id="Layer_1" xmlns="http://www.w3.org/2000/svg" xmlns:xlink="http://www.w3.org/1999/xlink" x="0px" y="0px"
	 width="50px" height="50px" viewBox="0 0 50 50" enable-background="new 0 0 50 50" xml:space="preserve">
<g>
	<path fill="#E05D6E" d="M42.4,35.7c1.699,1.8,1.899,4.399,0.1,6.1L40,44.1c-1.8,1.7-4.1,0.9-5.7-1l-22.7-25c-1.6-1.8,1-1.8,2.8-3.4
		l1.4-1.2c1.8-1.6,2.4-4.5,4-2.7L42.4,35.7z"/>
	<polygon fill="#CCCCCC" points="11,17.6 9.4,7.8 19,10.4 16.3,15.4 	"/>
	<path fill="#CCCCCC" d="M43.9,37.9c0.8,0.899,0.6,2.199-0.301,3L38.9,45.1c-0.9,0.801-2.2,0.9-3,0l0,0
		C35.1,44.2,34.2,43.9,35.1,43.1L42,36.9C42.9,36,43.1,36.9,43.9,37.9L43.9,37.9z"/>
	<polygon fill="#E05D6E" points="10.3,12.4 9.5,7.7 14.1,8.9 12.8,11.3 	"/>
	<line fill="none" stroke="#DFDFDF" stroke-width="3" stroke-miterlimit="10" x1="13.7" y1="16.6" x2="36.5" y2="41.8"/>
	<line fill="none" stroke="#DFDFDF" stroke-width="3" stroke-miterlimit="10" x1="17.4" y1="13.3" x2="40.2" y2="38.5"/>
</g>
<g>
	<path fill="#E05D6E" d="M40.2,44.1c0.2,2.5-1.3,4.601-3.8,4.801L33.1,49.1C30.6,49.3,29.4,47.2,29.2,44.8L27.1,11
		C26.9,8.5,28.9,10.2,31.4,10.1L33.3,10c2.5-0.2,4.7-2.1,4.8,0.4L40.2,44.1z"/>
	<polygon fill="#CCCCCC" points="26.9,10.3 31.8,1.6 37.7,9.6 32.4,11.8 	"/>
	<path fill="#CCCCCC" d="M40,46.6c0.1,1.2-0.9,2.101-2.1,2.101L31.6,49.1C30.4,49.2,29.3,48.5,29.3,47.2l0,0c-0.1-1.2-0.6-2,0.601-2
		l9.3-0.601C40.4,44.6,39.9,45.4,40,46.6L40,46.6z"/>
	<polygon fill="#E05D6E" points="29.6,5.8 32,1.6 34.8,5.4 32.3,6.5 	"/>
	<line fill="none" stroke="#DFDFDF" stroke-width="3" stroke-miterlimit="10" x1="29.6" y1="11.2" x2="31.7" y2="45.1"/>
	<line fill="none" stroke="#DFDFDF" stroke-width="3" stroke-miterlimit="10" x1="34.6" y1="10.9" x2="36.7" y2="44.8"/>
</g>
</svg>
